X:5449
T:Ravelled Hank of Yarn, The
O:england
R:reel
D:Declan Masterson: Tropical Trad.
M:C|
K:G
~B3d ~A3B|GB~B2 GABc|dA~A2 d2 (3efg|1 fdcA AGGA:|2 fdcA GABc||
dG~G2 dGBd|~g3a (3bag ag|dG~G2 Bdeg|fdcA AGG2|
dG~G2 dG (3Bcd|~g3a (3bag af|~g3a bgag|fdcA AGGA||
"Variations:"
|:~B3d ~A3B|GB~B2 GB~B2|dA~A2 d2 (3efg|1 fdcA AGGA:|2 fdcA GABc||
dG~G2 BGBd|~g3a bgeg|dG~G2 Bdeg|fdcA AGG2|
dG~G2 BG (3Bcd|~g3a bgef|~g3a bgag|fdcA AGGA||


